SVG_Azure_All/Slack.svg

<?xml version="1.0" encoding="UTF-8" standalone="no"?>
<!-- Generated by Microsoft Visio, SVG Export Slack.svg Page-1 -->

<svg
   xmlns:dc="http://purl.org/dc/elements/1.1/"
   xmlns:cc="http://creativecommons.org/ns#"
   xmlns:rdf="http://www.w3.org/1999/02/22-rdf-syntax-ns#"
   xmlns:svg="http://www.w3.org/2000/svg"
   xmlns="http://www.w3.org/2000/svg"
   xmlns:sodipodi="http://sodipodi.sourceforge.net/DTD/sodipodi-0.dtd"
   xmlns:inkscape="http://www.inkscape.org/namespaces/inkscape"
   width="0.77168268in"
   height="0.77160484in"
   viewBox="0 0 55.561166 55.555707"
   xml:space="preserve"
   class="st9"
   version="1.1"
   id="svg88"
   sodipodi:docname="Slack.svg"
   style="font-size:12px;overflow:visible;color-interpolation-filters:sRGB;fill:none;fill-rule:evenodd;stroke-linecap:square;stroke-miterlimit:3"
   inkscape:version="0.92.5 (2060ec1f9f, 2020-04-08)"><metadata
   id="metadata94"><rdf:RDF><cc:Work
       rdf:about=""><dc:format>image/svg+xml</dc:format><dc:type
         rdf:resource="http://purl.org/dc/dcmitype/StillImage" /></cc:Work></rdf:RDF></metadata><defs
   id="defs92" /><sodipodi:namedview
   pagecolor="#ffffff"
   bordercolor="#666666"
   borderopacity="1"
   objecttolerance="10"
   gridtolerance="10"
   guidetolerance="10"
   inkscape:pageopacity="0"
   inkscape:pageshadow="2"
   inkscape:window-width="640"
   inkscape:window-height="480"
   id="namedview90"
   showgrid="false"
   inkscape:zoom="1.8167351"
   inkscape:cx="37.042107"
   inkscape:cy="18.889794"
   inkscape:window-x="0"
   inkscape:window-y="0"
   inkscape:window-maximized="0"
   inkscape:current-layer="svg88" />
	<style
   type="text/css"
   id="style2">
	<![CDATA[
		.st1 {fill:#dfa22f;stroke:none;stroke-linecap:butt;stroke-width:7.32422}
		.st2 {fill:#3cb187;stroke:none;stroke-linecap:butt;stroke-width:7.32422}
		.st3 {fill:#ce1e5b;stroke:none;stroke-width:0.999999}
		.st4 {fill:none;stroke:none;stroke-linecap:butt;stroke-width:7.32422}
		.st5 {fill:#392538;stroke:none;stroke-width:0.999999}
		.st6 {fill:#bb242a;stroke:none;stroke-linecap:butt;stroke-width:7.32422}
		.st7 {fill:#72c5cd;stroke:none;stroke-width:0.999999}
		.st8 {fill:#248c73;stroke:none;stroke-linecap:butt;stroke-width:7.32422}
		.st9 {fill:none;fill-rule:evenodd;font-size:12px;overflow:visible;stroke-linecap:square;stroke-miterlimit:3}
	]]>
	</style>

	<g
   id="g86"
   transform="translate(-7.3219326,-7.3255772)">
		<title
   id="title4">Page-1</title>
		<g
   id="group1476-1"
   transform="translate(6.7935,-34.0157)">
			<title
   id="title6">Slack</title>
			<g
   id="group1477-2">
				<title
   id="title8">Page-1</title>
				<g
   id="group1478-3">
					<title
   id="title10">Slack</title>
					<g
   id="group1479-4"
   transform="translate(26.3022,-6.44333)">
						<title
   id="title12">Sheet.1479</title>
						<g
   id="shape1480-5">
							<title
   id="title14">Sheet.1480</title>
							<path
   d="M 10.25,51.21 C 9.42,48.61 6.61,47.18 4.02,48.03 1.42,48.88 0,51.67 0.85,54.26 l 12.79,39.37 c 0.88,2.44 3.51,3.8 6.03,3.07 2.61,-0.75 4.22,-3.54 3.38,-6.12 z"
   class="st1"
   id="path16"
   inkscape:connector-curvature="0"
   style="fill:#dfa22f;stroke:none;stroke-width:7.32422018;stroke-linecap:butt" />
						</g>
					</g>
					<g
   id="group1481-7"
   transform="translate(6.47264)">
						<title
   id="title20">Sheet.1481</title>
						<g
   id="shape1482-8">
							<title
   id="title22">Sheet.1482</title>
							<path
   d="M 10.25,51.21 C 9.42,48.61 6.63,47.18 4.02,48.03 1.42,48.88 0,51.67 0.85,54.26 l 12.79,39.37 c 0.88,2.44 3.51,3.8 6.03,3.07 2.61,-0.75 4.22,-3.54 3.38,-6.12 z"
   class="st2"
   id="path24"
   inkscape:connector-curvature="0"
   style="fill:#3cb187;stroke:none;stroke-width:7.32422018;stroke-linecap:butt" />
						</g>
					</g>
					<g
   id="group1483-10"
   transform="translate(6.44333,-6.42769)">
						<title
   id="title28">Sheet.1483</title>
						<g
   id="shape1484-11">
							<title
   id="title30">Sheet.1484</title>
							<path
   d="m 46.22,83.81 c 2.61,-0.85 4.03,-3.64 3.18,-6.24 -0.84,-2.6 -3.64,-4.03 -6.24,-3.18 L 3.8,87.18 c -2.43,0.88 -3.8,3.51 -3.08,6.03 0.76,2.63 3.55,4.22 6.13,3.38 z"
   class="st3"
   id="path32"
   inkscape:connector-curvature="0"
   style="fill:#ce1e5b;stroke:none;stroke-width:0.99999899" />
						</g>
						<g
   id="shape1485-13">
							<title
   id="title35">Sheet.1485</title>
							<path
   d="m 46.22,83.81 c 2.61,-0.85 4.03,-3.64 3.18,-6.24 -0.84,-2.6 -3.64,-4.03 -6.24,-3.18 L 3.8,87.18 c -2.43,0.88 -3.8,3.51 -3.08,6.03 0.76,2.63 3.55,4.22 6.13,3.38 z"
   class="st4"
   id="path37"
   inkscape:connector-curvature="0"
   style="fill:none;stroke:none;stroke-width:7.32422018;stroke-linecap:butt" />
						</g>
					</g>
					<g
   id="group1486-15"
   transform="translate(15.3841,-8.9386)">
						<title
   id="title41">Sheet.1486</title>
						<g
   id="shape1487-16">
							<title
   id="title43">Sheet.1487</title>
							<path
   d="M 3.05,97.43 12.47,94.37 9.42,84.96 0,88.03 Z"
   class="st5"
   id="path45"
   inkscape:connector-curvature="0"
   style="fill:#392538;stroke:none;stroke-width:0.99999899" />
						</g>
						<g
   id="shape1488-18">
							<title
   id="title48">Sheet.1488</title>
							<path
   d="M 3.05,97.43 12.47,94.37 9.42,84.96 0,88.03 Z"
   class="st4"
   id="path50"
   inkscape:connector-curvature="0"
   style="fill:none;stroke:none;stroke-width:7.32422018;stroke-linecap:butt" />
						</g>
					</g>
					<g
   id="group1489-20"
   transform="translate(35.213,-15.3819)">
						<title
   id="title54">Sheet.1489</title>
						<g
   id="shape1490-21">
							<title
   id="title56">Sheet.1490</title>
							<path
   d="m 3.05,97.43 c 3.56,-1.15 6.87,-2.22 9.42,-3.06 L 9.42,84.96 0,88.03 Z"
   class="st6"
   id="path58"
   inkscape:connector-curvature="0"
   style="fill:#bb242a;stroke:none;stroke-width:7.32422018;stroke-linecap:butt" />
						</g>
					</g>
					<g
   id="group1491-23"
   transform="translate(0,-26.2572)">
						<title
   id="title62">Sheet.1491</title>
						<g
   id="shape1492-24">
							<title
   id="title64">Sheet.1492</title>
							<path
   d="m 46.22,83.81 c 2.61,-0.85 4.03,-3.64 3.18,-6.24 -0.84,-2.6 -3.64,-4.03 -6.24,-3.18 L 3.8,87.19 c -2.43,0.87 -3.8,3.5 -3.08,6.02 0.76,2.63 3.55,4.22 6.13,3.38 z"
   class="st7"
   id="path66"
   inkscape:connector-curvature="0"
   style="fill:#72c5cd;stroke:none;stroke-width:0.99999899" />
						</g>
						<g
   id="shape1493-26">
							<title
   id="title69">Sheet.1493</title>
							<path
   d="m 46.22,83.81 c 2.61,-0.85 4.03,-3.64 3.18,-6.24 -0.84,-2.6 -3.64,-4.03 -6.24,-3.18 L 3.8,87.19 c -2.43,0.87 -3.8,3.5 -3.08,6.02 0.76,2.63 3.55,4.22 6.13,3.38 z"
   class="st4"
   id="path71"
   inkscape:connector-curvature="0"
   style="fill:none;stroke:none;stroke-width:7.32422018;stroke-linecap:butt" />
						</g>
					</g>
					<g
   id="group1494-28"
   transform="translate(8.93924,-28.7675)">
						<title
   id="title75">Sheet.1494</title>
						<g
   id="shape1495-29">
							<title
   id="title77">Sheet.1495</title>
							<path
   d="M 3.05,97.43 C 5.62,96.59 8.93,95.52 12.47,94.37 11.32,90.81 10.24,87.51 9.42,84.96 L 0,88.03 Z"
   class="st8"
   id="path79"
   inkscape:connector-curvature="0"
   style="fill:#248c73;stroke:none;stroke-width:7.32422018;stroke-linecap:butt" />
						</g>
					</g>
				</g>
			</g>
		</g>
	</g>
</svg>

<?xml version="1.0" encoding="UTF-8" standalone="no"?>
<!DOCTYPE svg PUBLIC "-//W3C//DTD SVG 1.1//EN" "http://www.w3.org/Graphics/SVG/1.1/DTD/svg11.dtd">
<!-- Generated by Microsoft Visio, SVG Export Slack.svg Page-1 -->
<svg xmlns="http://www.w3.org/2000/svg" xmlns:xlink="http://www.w3.org/1999/xlink" xmlns:ev="http://www.w3.org/2001/xml-events"
		width="0.975097in" height="1.35316in" viewBox="0 0 70.207 97.4278" xml:space="preserve" color-interpolation-filters="sRGB"
		class="st9">
	<style type="text/css">
	<![CDATA[
		.st1 {fill:#dfa22f;stroke:none;stroke-linecap:butt;stroke-width:7.32422}
		.st2 {fill:#3cb187;stroke:none;stroke-linecap:butt;stroke-width:7.32422}
		.st3 {fill:#ce1e5b;stroke:none;stroke-width:0.999999}
		.st4 {fill:none;stroke:none;stroke-linecap:butt;stroke-width:7.32422}
		.st5 {fill:#392538;stroke:none;stroke-width:0.999999}
		.st6 {fill:#bb242a;stroke:none;stroke-linecap:butt;stroke-width:7.32422}
		.st7 {fill:#72c5cd;stroke:none;stroke-width:0.999999}
		.st8 {fill:#248c73;stroke:none;stroke-linecap:butt;stroke-width:7.32422}
		.st9 {fill:none;fill-rule:evenodd;font-size:12px;overflow:visible;stroke-linecap:square;stroke-miterlimit:3}
	]]>
	</style>

	<g>
		<title>Page-1</title>
		<g id="group1461-1" transform="translate(6.7935,-34.0157)">
			<title>Slack</title>
			<g id="group1462-2">
				<title>Page-1</title>
				<g id="group1463-3">
					<title>Slack</title>
					<g id="group1464-4" transform="translate(26.3022,-6.44333)">
						<title>Sheet.1464</title>
						<g id="shape1465-5">
							<title>Sheet.1465</title>
							<path d="M10.25 51.21 C9.42 48.61 6.61 47.18 4.02 48.03 C1.42 48.88 0 51.67 0.85 54.26 L13.64 93.63 C14.52
										 96.07 17.15 97.43 19.67 96.7 C22.28 95.95 23.89 93.16 23.05 90.58 L10.25 51.21 Z"
									class="st1"/>
						</g>
					</g>
					<g id="group1466-7" transform="translate(6.47264,2.70006E-13)">
						<title>Sheet.1466</title>
						<g id="shape1467-8">
							<title>Sheet.1467</title>
							<path d="M10.25 51.21 C9.42 48.61 6.63 47.18 4.02 48.03 C1.42 48.88 0 51.67 0.85 54.26 L13.64 93.63 C14.52
										 96.07 17.15 97.43 19.67 96.7 C22.28 95.95 23.89 93.16 23.05 90.58 L10.25 51.21 Z"
									class="st2"/>
						</g>
					</g>
					<g id="group1468-10" transform="translate(6.44333,-6.42769)">
						<title>Sheet.1468</title>
						<g id="shape1469-11">
							<title>Sheet.1469</title>
							<path d="M46.22 83.81 C48.83 82.96 50.25 80.17 49.4 77.57 C48.56 74.97 45.76 73.54 43.16 74.39 L3.8 87.18
										 C1.37 88.06 0 90.69 0.72 93.21 C1.48 95.84 4.27 97.43 6.85 96.59 L46.22 83.81 Z"
									class="st3"/>
						</g>
						<g id="shape1470-13">
							<title>Sheet.1470</title>
							<path d="M46.22 83.81 C48.83 82.96 50.25 80.17 49.4 77.57 C48.56 74.97 45.76 73.54 43.16 74.39 L3.8 87.18
										 C1.37 88.06 0 90.69 0.72 93.21 C1.48 95.84 4.27 97.43 6.85 96.59 L46.22 83.81 Z"
									class="st4"/>
						</g>
					</g>
					<g id="group1471-15" transform="translate(15.3841,-8.9386)">
						<title>Sheet.1471</title>
						<g id="shape1472-16">
							<title>Sheet.1472</title>
							<path d="M3.05 97.43 L12.47 94.37 L9.42 84.96 L0 88.03 L3.05 97.43 Z" class="st5"/>
						</g>
						<g id="shape1473-18">
							<title>Sheet.1473</title>
							<path d="M3.05 97.43 L12.47 94.37 L9.42 84.96 L0 88.03 L3.05 97.43 Z" class="st4"/>
						</g>
					</g>
					<g id="group1474-20" transform="translate(35.213,-15.3819)">
						<title>Sheet.1474</title>
						<g id="shape1475-21">
							<title>Sheet.1475</title>
							<path d="M3.05 97.43 C6.61 96.28 9.92 95.21 12.47 94.37 L9.42 84.96 L0 88.03 L3.05 97.43 Z" class="st6"/>
						</g>
					</g>
					<g id="group1476-23" transform="translate(2.8777E-13,-26.2572)">
						<title>Sheet.1476</title>
						<g id="shape1477-24">
							<title>Sheet.1477</title>
							<path d="M46.22 83.81 C48.83 82.96 50.25 80.17 49.4 77.57 C48.56 74.97 45.76 73.54 43.16 74.39 L3.8 87.19
										 C1.37 88.06 0 90.69 0.72 93.21 C1.48 95.84 4.27 97.43 6.85 96.59 L46.22 83.81 Z"
									class="st7"/>
						</g>
						<g id="shape1478-26">
							<title>Sheet.1478</title>
							<path d="M46.22 83.81 C48.83 82.96 50.25 80.17 49.4 77.57 C48.56 74.97 45.76 73.54 43.16 74.39 L3.8 87.19
										 C1.37 88.06 0 90.69 0.72 93.21 C1.48 95.84 4.27 97.43 6.85 96.59 L46.22 83.81 Z"
									class="st4"/>
						</g>
					</g>
					<g id="group1479-28" transform="translate(8.93924,-28.7675)">
						<title>Sheet.1479</title>
						<g id="shape1480-29">
							<title>Sheet.1480</title>
							<path d="M3.05 97.43 C5.62 96.59 8.93 95.52 12.47 94.37 C11.32 90.81 10.24 87.51 9.42 84.96 L0 88.03
										 L3.05 97.43 Z" class="st8"/>
						</g>
					</g>
				</g>
			</g>
		</g>
	</g>
</svg>
